img/svg/tab-icons/menu-ico.svg

<svg width="24" height="24" viewBox="0 0 24 24" fill="#E0E0E0" xmlns="http://www.w3.org/2000/svg">
<path d="M3.375 15.375C1.5141 15.375 0 13.8609 0 12C0 10.1391 1.5141 8.625 3.375 8.625C5.2359 8.625 6.75 10.1391 6.75 12C6.75 12.5178 6.33032 12.9375 5.8125 12.9375C5.29468 12.9375 4.875 12.5178 4.875 12C4.875 11.1729 4.20209 10.5 3.375 10.5C2.54791 10.5 1.875 11.1729 1.875 12C1.875 12.8271 2.54791 13.5 3.375 13.5C3.89282 13.5 4.3125 13.9197 4.3125 14.4375C4.3125 14.9553 3.89282 15.375 3.375 15.375ZM21.5625 14.4375C21.5625 13.9197 21.1428 13.5 20.625 13.5C19.7979 13.5 19.125 12.8271 19.125 12C19.125 11.1729 19.7979 10.5 20.625 10.5C21.4521 10.5 22.125 11.1729 22.125 12C22.125 12.5178 22.5447 12.9375 23.0625 12.9375C23.5803 12.9375 24 12.5178 24 12C24 10.1391 22.4859 8.625 20.625 8.625C18.7641 8.625 17.25 10.1391 17.25 12C17.25 13.8609 18.7641 15.375 20.625 15.375C21.1428 15.375 21.5625 14.9553 21.5625 14.4375ZM12.9375 14.4375C12.9375 13.9197 12.5178 13.5 12 13.5C11.1729 13.5 10.5 12.8271 10.5 12C10.5 11.1729 11.1729 10.5 12 10.5C12.8271 10.5 13.5 11.1729 13.5 12C13.5 12.5178 13.9197 12.9375 14.4375 12.9375C14.9553 12.9375 15.375 12.5178 15.375 12C15.375 10.1391 13.8609 8.625 12 8.625C10.1391 8.625 8.625 10.1391 8.625 12C8.625 13.8609 10.1391 15.375 12 15.375C12.5178 15.375 12.9375 14.9553 12.9375 14.4375Z"/>
</svg>

<svg width="24" height="24" fill="#E0E0E0" xmlns="http://www.w3.org/2000/svg"><path d="M3.375 15.375A3.379 3.379 0 010 12a3.379 3.379 0 013.375-3.375A3.379 3.379 0 016.75 12a.937.937 0 11-1.875 0c0-.827-.673-1.5-1.5-1.5s-1.5.673-1.5 1.5.673 1.5 1.5 1.5a.937.937 0 110 1.875zm18.188-.938a.937.937 0 00-.938-.937c-.827 0-1.5-.673-1.5-1.5s.673-1.5 1.5-1.5 1.5.673 1.5 1.5A.937.937 0 1024 12a3.379 3.379 0 00-3.375-3.375A3.379 3.379 0 0017.25 12a3.379 3.379 0 003.375 3.375c.518 0 .938-.42.938-.938zm-8.625 0A.937.937 0 0012 13.5c-.827 0-1.5-.673-1.5-1.5s.673-1.5 1.5-1.5 1.5.673 1.5 1.5a.937.937 0 101.875 0A3.379 3.379 0 0012 8.625 3.379 3.379 0 008.625 12 3.379 3.379 0 0012 15.375c.518 0 .938-.42.938-.938z"/></svg>
